X:31
T:Scottish  Cadet
M:2/4
L:1/16
K:G
D2GA B2A2|G2Bc d4|dedc BdcB|AcBA B2G2|\
D2GA B2A2|G2Bc d4|dedc BdcB|AcBA G4:|
B2B2 A2FG|A2A2 G4|DEFG A2A2|GFGA B2GA|\
B2B2 A2FG|A2A2 G4|DEFG A2A2|GFGA G4:|
